X: 21
T:Brudsmarsch efter Byss-Calle Introduction
M:4/4
L:1/8
C:Trad. Swedish
S:Vsen
K:G
:D4F2A2|G4D>DD2-|D2G2B2d2|c4A>AA2-|A4d4|B3G BG A3F AF|G2D2B2A2|G3D DDD2-
|D2G2B2d2|!c4A>AA2-|A4d4|B3G BG A3F AF|G2D2B2A2|G8
